src/assets/icons/volume-high.svg

<svg widh="100%" height="100%" viewBox="0 0 24 24" fill="current"
  xmlns="http://www.w3.org/2000/svg">
  <path d="M9.58078 4.43141C10.0595 3.9832 10.4519 4.13528 10.4519 4.76929V19.2305C10.4519 19.8647 10.0595 20.0168 9.58078 19.5684L5.07457 15.3535H2.08696V8.64685H5.07457L9.58078 4.43141ZM12.3382 16.0001C12.1089 16.0001 11.8792 15.9185 11.7043 15.7546C11.3541 15.427 11.3541 14.896 11.7043 14.569C13.2184 13.1527 13.2184 10.8484 11.7043 9.43217C11.3541 9.10463 11.3541 8.57368 11.7043 8.24653C12.0544 7.91937 12.622 7.91937 12.9714 8.24653C15.1846 10.3171 15.1846 13.6852 12.9714 15.7553C12.7969 15.9178 12.5675 16.0001 12.3382 16.0001ZM15.5212 17.5808C15.2927 17.5808 15.0625 17.4991 14.8876 17.3353C14.5374 17.0076 14.5374 16.4767 14.8876 16.1495C17.3334 13.8617 17.3334 10.139 14.8876 7.85119C14.5374 7.52365 14.5374 6.9927 14.8876 6.66555C15.2378 6.33801 15.8055 6.33801 16.1547 6.66555C17.6791 8.08984 18.5182 9.98495 18.5182 12C18.5182 14.0155 17.6791 15.91 16.1555 17.3353C15.9807 17.4991 15.751 17.5808 15.5212 17.5808ZM18.7058 19.1618C18.476 19.1618 18.2467 19.0801 18.0714 18.9165C17.7217 18.5886 17.7217 18.058 18.0714 17.7309C19.7084 16.1992 20.6093 14.1644 20.6093 12C20.6093 9.83556 19.7084 7.80062 18.0714 6.26982C17.7217 5.94267 17.7217 5.41133 18.0714 5.08418C18.4216 4.75702 18.9896 4.75702 19.339 5.08418C21.3142 6.9314 22.4019 9.38812 22.4019 12C22.4019 14.6122 21.3142 17.0689 19.339 18.9157C19.1641 19.0798 18.9352 19.1618 18.7058 19.1618Z"/>
</svg>

<svg xmlns="http://www.w3.org/2000/svg" fill="currentColor" viewBox="0 0 24 24">
  <path d="M9.58 4.431c.48-.448.872-.296.872.338V19.23c0 .635-.393.787-.871.338l-4.506-4.215H2.087V8.648h2.988L9.58 4.43Zm2.758 11.57a.925.925 0 0 1-.634-.246.8.8 0 0 1 0-1.186c1.514-1.416 1.514-3.72 0-5.137a.8.8 0 0 1 0-1.185.94.94 0 0 1 1.267 0c2.214 2.07 2.214 5.438 0 7.508a.929.929 0 0 1-.633.245Zm3.183 1.58a.926.926 0 0 1-.633-.246.8.8 0 0 1 0-1.186c2.445-2.287 2.445-6.01 0-8.298a.8.8 0 0 1 0-1.185.94.94 0 0 1 1.267 0C17.679 8.09 18.518 9.985 18.518 12c0 2.015-.839 3.91-2.363 5.335a.926.926 0 0 1-.634.246Zm3.185 1.58a.928.928 0 0 1-.635-.245.801.801 0 0 1 0-1.185c1.637-1.532 2.538-3.567 2.538-5.731 0-2.164-.9-4.2-2.538-5.73a.801.801 0 0 1 0-1.186.941.941 0 0 1 1.268 0c1.975 1.847 3.063 4.304 3.063 6.916s-1.088 5.069-3.063 6.916a.923.923 0 0 1-.633.246Z"/>
</svg>
